Assets/Icons/expression/exclamation-ballon.svg

<svg enable-background="new 0 0 60 60" viewBox="0 0 60 60" xmlns="http://www.w3.org/2000/svg"><path d="m56.5 1.45h-53c-1.1 0-2 .9-2 2l.01 32.55c0 6.34 5.16 11.5 11.5 11.5h10.49v8.21c0 1.83 2.25 2.7 3.48 1.35l8.68-9.55h20.84c1.1 0 2-.9 2-2v-42.06c0-1.11-.9-2-2-2zm-1 43.05h-20.28c-.56 0-1.1.24-1.48.65l-7.24 7.96v-6.61c0-1.1-.9-2-2-2h-11.49c-4.69 0-8.5-3.8-8.5-8.5l-.01-31.55h51z"/><path d="m27.88 28.65c0 .19.06.34.18.45s.28.16.47.16h2.95c.19 0 .35-.05.47-.16s.18-.26.18-.45c.17-5.21.29-9.14.38-11.79.08-2.65.13-4.01.13-4.09 0-.22-.05-.37-.14-.47-.1-.1-.24-.14-.43-.14h-4.1c-.19 0-.34.05-.43.14-.1.1-.14.25-.14.47 0 .07.04 1.43.13 4.09.05 2.65.18 6.58.35 11.79z"/><path d="m29.96 37.32c.84 0 1.52-.25 2.05-.76.53-.5.79-1.18.79-2.02s-.26-1.52-.79-2.05-1.21-.79-2.05-.79c-.82 0-1.48.26-2 .79s-.77 1.21-.77 2.05c0 .82.26 1.48.77 2s1.19.78 2 .78z"/></svg>

<?xml version="1.0" encoding="utf-8"?>
<!-- Generator: Adobe Illustrator 21.1.0, SVG Export Plug-In . SVG Version: 6.00 Build 0)  -->
<svg version="1.1" id="eps" xmlns="http://www.w3.org/2000/svg" xmlns:xlink="http://www.w3.org/1999/xlink" x="0px" y="0px"
	 viewBox="0 0 60 60" style="enable-background:new 0 0 60 60;" xml:space="preserve">
<g>
	<path d="M56.5,1.45h-53c-1.1,0-2,0.9-2,2L1.51,36c0,6.34,5.16,11.5,11.5,11.5H23.5v8.21c0,1.83,2.25,2.7,3.48,1.35l8.68-9.55H56.5
		c1.1,0,2-0.9,2-2V3.45C58.5,2.34,57.6,1.45,56.5,1.45z M55.5,44.5H35.22c-0.56,0-1.1,0.24-1.48,0.65l-7.24,7.96V46.5
		c0-1.1-0.9-2-2-2H13.01c-4.69,0-8.5-3.8-8.5-8.5L4.5,4.45h51V44.5z"/>
	<path d="M27.88,28.65c0,0.19,0.06,0.34,0.18,0.45s0.28,0.16,0.47,0.16h2.95c0.19,0,0.35-0.05,0.47-0.16
		c0.12-0.11,0.18-0.26,0.18-0.45c0.17-5.21,0.29-9.14,0.38-11.79c0.08-2.65,0.13-4.01,0.13-4.09c0-0.22-0.05-0.37-0.14-0.47
		c-0.1-0.1-0.24-0.14-0.43-0.14h-4.1c-0.19,0-0.34,0.05-0.43,0.14c-0.1,0.1-0.14,0.25-0.14,0.47c0,0.07,0.04,1.43,0.13,4.09
		C27.58,19.51,27.71,23.44,27.88,28.65z"/>
	<path d="M29.96,37.32c0.84,0,1.52-0.25,2.05-0.76c0.53-0.5,0.79-1.18,0.79-2.02s-0.26-1.52-0.79-2.05
		c-0.53-0.53-1.21-0.79-2.05-0.79c-0.82,0-1.48,0.26-2,0.79c-0.52,0.53-0.77,1.21-0.77,2.05c0,0.82,0.26,1.48,0.77,2
		S29.15,37.32,29.96,37.32z"/>
</g>
</svg>
